hero/outline/squares-plus.svg

<svg width="24" height="24" viewBox="0 0 24 24" fill="none" xmlns="http://www.w3.org/2000/svg">
<path d="M13.5 16.875H16.875M16.875 16.875H20.25M16.875 16.875V13.5M16.875 16.875V20.25M6 10.5H8.25C9.49264 10.5 10.5 9.49264 10.5 8.25V6C10.5 4.75736 9.49264 3.75 8.25 3.75H6C4.75736 3.75 3.75 4.75736 3.75 6V8.25C3.75 9.49264 4.75736 10.5 6 10.5ZM6 20.25H8.25C9.49264 20.25 10.5 19.2426 10.5 18V15.75C10.5 14.5074 9.49264 13.5 8.25 13.5H6C4.75736 13.5 3.75 14.5074 3.75 15.75V18C3.75 19.2426 4.75736 20.25 6 20.25ZM15.75 10.5H18C19.2426 10.5 20.25 9.49264 20.25 8.25V6C20.25 4.75736 19.2426 3.75 18 3.75H15.75C14.5074 3.75 13.5 4.75736 13.5 6V8.25C13.5 9.49264 14.5074 10.5 15.75 10.5Z" stroke="#0F172A" stroke-width="1.5" stroke-linecap="round" stroke-linejoin="round"/>
</svg>

<svg viewBox="0 0 24 24" xmlns="http://www.w3.org/2000/svg"><path fill="none" stroke="#000" stroke-linecap="round" stroke-linejoin="round" stroke-width="1.5" d="M13.5 16.875h3.375m0 0h3.375m-3.375 0V13.5m0 3.375v3.375M6 10.5h2.25v0c1.24 0 2.25-1.01 2.25-2.25V6v0c0-1.25-1.01-2.25-2.25-2.25H6v0c-1.25 0-2.25 1-2.25 2.25v2.25 0c0 1.24 1 2.25 2.25 2.25Zm0 9.75h2.25v0c1.24 0 2.25-1.01 2.25-2.25v-2.25 0c0-1.25-1.01-2.25-2.25-2.25H6v0c-1.25 0-2.25 1-2.25 2.25V18v0c0 1.24 1 2.25 2.25 2.25Zm9.75-9.75H18v0c1.24 0 2.25-1.01 2.25-2.25V6v0c0-1.25-1.01-2.25-2.25-2.25h-2.25v0c-1.25 0-2.25 1-2.25 2.25v2.25 0c0 1.24 1 2.25 2.25 2.25Z"/></svg>
